weallcode/static/weallcode/images/companies/microsoft.svg

<svg height="39" viewBox="0 0 184 39" width="184" xmlns="http://www.w3.org/2000/svg"><g fill="#fff" fill-opacity=".4" fill-rule="evenodd"><path d="m65.2525453 22.2037221-1.0941665 3.1131513h-.0911805c-.1823611-.7019851-.5166897-1.7702233-1.0637729-3.0521091l-5.865948-14.80272956h-5.744374v23.59280396h3.7991892v-14.5585608c0-.9156327 0-1.9533499-.0303936-3.2352357-.0303935-.6409429-.0911805-1.1292804-.121574-1.4955335h.0911805c.1823611.9156327.3951157 1.5870968.5470833 2.014392l7.0512949 17.2138958h2.6746292l6.9905079-17.3665012c.1519676-.3967742.3039352-1.1903226.4559027-1.8617866h.0911806c-.0911806 1.7397022-.1519676 3.2962779-.1823611 4.2424317v14.955335h4.0423372v-23.56228284h-5.5316193zm15.3791175-8.1491315h3.9511567v16.9086848h-3.9511567zm2.0059719-7.14193551c-.6686573 0-1.2157406.24416873-1.6716433.67146402-.4559026.42729528-.6990507.97667493-.6990507 1.64813895 0 .64094293.2431481 1.19032254.6990507 1.61761784.4559027.4272953 1.002986.640943 1.6716433.640943.6686572 0 1.246134-.2441688 1.6716432-.640943.4559027-.4272953.6990508-.97667491.6990508-1.61761784 0-.64094292-.2431481-1.19032258-.6990508-1.64813895-.3951157-.42729529-.9725924-.67146402-1.6716432-.67146402zm15.9565942 6.98933001c-.7294443-.1526054-1.4892821-.2441687-2.2187264-.2441687-1.7932173 0-3.434467.3967742-4.8021751 1.1903226-1.367708.7935483-2.4618745 1.8923077-3.1609253 3.2657568-.7294443 1.4039702-1.0941665 3.0215881-1.0941665 4.8833747 0 1.6176178.3647222 3.0521092 1.063773 4.3645161.6990508 1.2818859 1.6716432 2.319603 2.9785642 3.0215881 1.2461341.7019851 2.7050227 1.0682382 4.3462724 1.0682382 1.8843978 0 3.495254-.3967742 4.7717818-1.1292804l.030393-.0305211v-3.662531l-.151967.1220844c-.5774771.4272952-1.2461344.7935484-1.9147917 1.007196-.6990508.2441687-1.3373145.3662531-1.8843978.3662531-1.5804626 0-2.8265967-.4578164-3.7080085-1.4650124-.9118054-.9766749-1.3677081-2.319603-1.3677081-3.998263 0-1.7397023.4559027-3.1131514 1.3981016-4.1203474.9421989-1.0071961 2.1883329-1.5260546 3.7080086-1.5260546 1.2765275 0 2.5834485.4272953 3.7687959 1.2818858l.151967.1220844v-3.8761787l-.030393-.0305211c-.51669-.2136476-1.0941668-.4578163-1.8843981-.6104218zm13.0388171-.1220844c-.972592 0-1.884398.305211-2.674629.9461539-.668658.5493796-1.12456 1.342928-1.519676 2.2890819h-.030393v-2.9605459h-3.951157v16.9086848h3.951157v-8.6374689c0-1.4650125.303935-2.6858561.972592-3.5709678.668657-.9156327 1.519676-1.3734491 2.553055-1.3734491.364722 0 .729444.0915633 1.185347.1526054.425509.1220844.729444.2441688.942199.3967742l.151968.1220844v-3.9677419l-.091181-.0305211c-.273542-.1831266-.820625-.2746899-1.489282-.2746899zm10.759303-.0915632c-2.765809 0-4.984536.8240694-6.534605 2.4416873-1.580462 1.6176179-2.3403 3.8456576-2.3403 6.653598 0 2.6248139.790231 4.7612904 2.309907 6.317866 1.519675 1.5260546 3.586434 2.319603 6.169883 2.319603 2.705022 0 4.862962-.8240695 6.413031-2.4722084 1.580463-1.648139 2.3403-3.8456576 2.3403-6.5620348 0-2.685856-.729444-4.8223325-2.218726-6.3789082-1.428495-1.5565756-3.525647-2.3196029-6.13949-2.3196029zm3.160926 13.0019851c-.729445.9461538-1.884398 1.4039702-3.312893 1.4039702s-2.583449-.4578164-3.404074-1.4650124c-.820624-.9461538-1.21574-2.319603-1.21574-4.0593052 0-1.8007444.425509-3.1741936 1.21574-4.1508685.820625-.9766749 1.945185-1.4650124 3.37368-1.4650124 1.398102 0 2.492268.4578164 3.2825 1.4039702.790231.9461539 1.21574 2.319603 1.21574 4.1203474-.060787 1.8312655-.395115 3.2657568-1.154953 4.2119107zm14.011409-5.6158809c-1.246134-.5188586-2.036365-.9156328-2.401087-1.2513648-.303935-.3052109-.455903-.7325062-.455903-1.2818858 0-.4578164.182361-.9156328.638264-1.2208437.455902-.3052109.972592-.4578164 1.73243-.4578164.668657 0 1.367708.1220844 2.036365.3052109.668658.1831266 1.276528.4578164 1.762824.8240695l.151968.1220844v-3.7235732l-.091181-.0305211c-.455903-.1831266-1.063773-.3662531-1.793217-.5188586-.729444-.1220843-1.398102-.1831265-1.945185-.1831265-1.884398 0-3.434467.4578164-4.650207 1.4650124-1.215741.9461538-1.793218 2.2280397-1.793218 3.7235732 0 .7935484.121574 1.4955335.395116 2.0754342.273542.5799008.668657 1.1292804 1.215741 1.5870968.547083.4272953 1.337314.9156328 2.431481 1.3734491.911805.3967742 1.610856.7019851 2.036365.9461539.425509.2441687.699051.5188585.911805.7325062.151968.2441687.243148.5493796.243148.9461538 0 1.1292804-.851018 1.6786601-2.583448 1.6786601-.668657 0-1.367708-.1220844-2.188333-.3967742s-1.580463-.671464-2.218727-1.1292804l-.151967-.1220844v3.8761787l.09118.0305211c.577477.2746898 1.276528.4578164 2.127546.671464.851019.1526055 1.610856.2746898 2.279514.2746898 2.036365 0 3.708008-.4578164 4.893355-1.4650124 1.215741-.9766749 1.854005-2.2280397 1.854005-3.8456576 0-1.1292804-.303935-2.1364764-.972593-2.8995037-.881412-.7325062-1.975578-1.4955335-3.556041-2.1059553zm14.953609-7.3861042c-2.76581 0-4.984537.8240694-6.534606 2.4416873s-2.3403 3.8456576-2.3403 6.653598c0 2.6248139.790231 4.7612904 2.309907 6.317866 1.519675 1.5260546 3.586434 2.319603 6.169883 2.319603 2.705023 0 4.862962-.8240695 6.413031-2.4722084 1.580463-1.648139 2.340301-3.8456576 2.340301-6.5620348 0-2.685856-.729445-4.8223325-2.218727-6.3789082-1.428495-1.5565756-3.525647-2.3196029-6.139489-2.3196029zm3.130531 13.0019851c-.729444.9461538-1.884397 1.4039702-3.312893 1.4039702-1.458888 0-2.583448-.4578164-3.404073-1.4650124-.820625-.9461538-1.21574-2.319603-1.21574-4.0593052 0-1.8007444.425509-3.1741936 1.21574-4.1508685.820625-.9766749 1.945185-1.4650124 3.37368-1.4650124 1.367708 0 2.492268.4578164 3.282499 1.4039702.790232.9461539 1.215741 2.319603 1.215741 4.1203474 0 1.8312655-.395116 3.2657568-1.154954 4.2119107zm26.351176-9.3699752v-3.2657568h-3.98155v-5.00545909l-.121574.0305211-3.768796 1.12928039-.09118.0305211v3.8151365h-5.957129v-2.1364765c0-.9766749.243148-1.7397022.668657-2.22803966.42551-.48833747 1.063773-.7325062 1.854005-.7325062.547083 0 1.12456.12208437 1.762823.39677419l.151968.09156328v-3.44888338l-.091181-.03052109c-.547083-.18312655-1.276527-.30521092-2.218726-.30521092-1.185347 0-2.218726.27468983-3.160925.73250621-.942199.51885856-1.64125 1.22084367-2.15794 2.16699751-.516689.91563276-.790231 1.95334986-.790231 3.14367246v2.3501241h-2.76581v3.2352357h2.76581v13.6734491h3.98155v-13.642928h5.957129v8.6985112c0 3.5709677 1.671643 5.3717121 5.014929 5.3717121.547083 0 1.12456-.0915633 1.671643-.1831265.577477-.1220844 1.002986-.2746899 1.246134-.3967742l.030394-.0305211v-3.2657568l-.151968.1220843c-.243148.1526055-.455902.2746899-.820624.3662531-.303936.0915633-.577477.1220844-.790232.1220844-.790231 0-1.337314-.1831266-1.73243-.6409429-.364722-.4272953-.547083-1.1292804-.547083-2.1669976v-7.996526z" fill-rule="nonzero"/><path d="m0 0h18.4v18.2419355h-18.4z"/><path d="m20.937931 0h18.4v18.2419355h-18.4z"/><path d="m0 20.7580645h18.4v18.2419355h-18.4z"/><path d="m20.937931 20.7580645h18.4v18.2419355h-18.4z"/></g></svg>

<?xml version="1.0" encoding="UTF-8"?>
<svg width="184px" height="39px" viewBox="0 0 184 39" version="1.1" xmlns="http://www.w3.org/2000/svg" xmlns:xlink="http://www.w3.org/1999/xlink">
    <!-- Generator: Sketch 52.6 (67491) - http://www.bohemiancoding.com/sketch -->
    <title>Group 24</title>
    <desc>Created with Sketch.</desc>
    <g id="Page-1" stroke="none" stroke-width="1" fill="none" fill-rule="evenodd" fill-opacity="0.4">
        <g id="Desktop" transform="translate(-1144.000000, -3370.000000)" fill="#FFFFFF">
            <g id="Group-26" transform="translate(-29.000000, 3294.000000)">
                <g id="Group-25" transform="translate(109.000000, 63.000000)">
                    <g id="Group-24" transform="translate(1064.000000, 13.000000)">
                        <g id="Microsoft_logo_(2012)">
                            <path d="M65.2525453,22.2037221 L64.1583788,25.3168734 L64.0671983,25.3168734 C63.8848372,24.6148883 63.5505086,23.5466501 63.0034254,22.2647643 L57.1374774,7.46203474 L51.3931034,7.46203474 L51.3931034,31.0548387 L55.1922926,31.0548387 L55.1922926,16.4962779 C55.1922926,15.5806452 55.1922926,14.542928 55.161899,13.2610422 C55.1315055,12.6200993 55.0707185,12.1317618 55.040325,11.7655087 L55.1315055,11.7655087 C55.3138666,12.6811414 55.5266212,13.3526055 55.6785888,13.7799007 L62.7298837,30.9937965 L65.4045129,30.9937965 L72.3950208,13.6272953 C72.5469884,13.2305211 72.698956,12.4369727 72.8509235,11.7655087 L72.9421041,11.7655087 C72.8509235,13.5052109 72.7901365,15.0617866 72.759743,16.0079404 L72.759743,30.9632754 L76.8020802,30.9632754 L76.8020802,7.40099256 L71.2704609,7.40099256 L65.2525453,22.2037221 Z M80.6316628,14.0545906 L84.5828195,14.0545906 L84.5828195,30.9632754 L80.6316628,30.9632754 L80.6316628,14.0545906 Z M82.6376347,6.91265509 C81.9689774,6.91265509 81.4218941,7.15682382 80.9659914,7.58411911 C80.5100888,8.01141439 80.2669407,8.56079404 80.2669407,9.23225806 C80.2669407,9.87320099 80.5100888,10.4225806 80.9659914,10.8498759 C81.4218941,11.2771712 81.9689774,11.4908189 82.6376347,11.4908189 C83.3062919,11.4908189 83.8837687,11.2466501 84.3092779,10.8498759 C84.7651806,10.4225806 85.0083287,9.87320099 85.0083287,9.23225806 C85.0083287,8.59131514 84.7651806,8.04193548 84.3092779,7.58411911 C83.9141622,7.15682382 83.3366855,6.91265509 82.6376347,6.91265509 Z M98.5942289,13.9019851 C97.8647846,13.7493797 97.1049468,13.6578164 96.3755025,13.6578164 C94.5822852,13.6578164 92.9410355,14.0545906 91.5733274,14.848139 C90.2056194,15.6416873 89.1114529,16.7404467 88.4124021,18.1138958 C87.6829578,19.517866 87.3182356,21.1354839 87.3182356,22.9972705 C87.3182356,24.6148883 87.6829578,26.0493797 88.3820086,27.3617866 C89.0810594,28.6436725 90.0536518,29.6813896 91.3605728,30.3833747 C92.6067069,31.0853598 94.0655955,31.4516129 95.7068452,31.4516129 C97.591243,31.4516129 99.2020992,31.0548387 100.478627,30.3223325 L100.50902,30.2918114 L100.50902,26.6292804 L100.357053,26.7513648 C99.7795759,27.17866 99.1109186,27.5449132 98.4422613,27.7585608 C97.7432105,28.0027295 97.1049468,28.1248139 96.5578635,28.1248139 C94.9774009,28.1248139 93.7312668,27.6669975 92.849855,26.6598015 C91.9380496,25.6831266 91.4821469,24.3401985 91.4821469,22.6615385 C91.4821469,20.9218362 91.9380496,19.5483871 92.8802485,18.5411911 C93.8224474,17.533995 95.0685814,17.0151365 96.5882571,17.0151365 C97.8647846,17.0151365 99.1717056,17.4424318 100.357053,18.2970223 L100.50902,18.4191067 L100.50902,14.542928 L100.478627,14.5124069 C99.961937,14.2987593 99.3844602,14.0545906 98.5942289,13.9019851 Z M111.633046,13.7799007 C110.660454,13.7799007 109.748648,14.0851117 108.958417,14.7260546 C108.289759,15.2754342 107.833857,16.0689826 107.438741,17.0151365 L107.408348,17.0151365 L107.408348,14.0545906 L103.457191,14.0545906 L103.457191,30.9632754 L107.408348,30.9632754 L107.408348,22.3258065 C107.408348,20.860794 107.712283,19.6399504 108.38094,18.7548387 C109.049597,17.839206 109.900616,17.3813896 110.933995,17.3813896 C111.298717,17.3813896 111.663439,17.4729529 112.119342,17.533995 C112.544851,17.6560794 112.848786,17.7781638 113.061541,17.9307692 L113.213509,18.0528536 L113.213509,14.0851117 L113.122328,14.0545906 C112.848786,13.871464 112.301703,13.7799007 111.633046,13.7799007 Z M122.392349,13.6883375 C119.62654,13.6883375 117.407813,14.5124069 115.857744,16.1300248 C114.277282,17.7476427 113.517444,19.9756824 113.517444,22.7836228 C113.517444,25.4084367 114.307675,27.5449132 115.827351,29.1014888 C117.347026,30.6275434 119.413785,31.4210918 121.997234,31.4210918 C124.702256,31.4210918 126.860196,30.5970223 128.410265,28.9488834 C129.990728,27.3007444 130.750565,25.1032258 130.750565,22.3868486 C130.750565,19.7009926 130.021121,17.5645161 128.531839,16.0079404 C127.103344,14.4513648 125.006192,13.6883375 122.392349,13.6883375 Z M125.553275,26.6903226 C124.82383,27.6364764 123.668877,28.0942928 122.240382,28.0942928 C120.811887,28.0942928 119.656933,27.6364764 118.836308,26.6292804 C118.015684,25.6831266 117.620568,24.3096774 117.620568,22.5699752 C117.620568,20.7692308 118.046077,19.3957816 118.836308,18.4191067 C119.656933,17.4424318 120.781493,16.9540943 122.209988,16.9540943 C123.60809,16.9540943 124.702256,17.4119107 125.492488,18.3580645 C126.282719,19.3042184 126.708228,20.6776675 126.708228,22.4784119 C126.647441,24.3096774 126.313113,25.7441687 125.553275,26.6903226 Z M139.564684,21.0744417 C138.31855,20.5555831 137.528319,20.1588089 137.163597,19.8230769 C136.859662,19.517866 136.707694,19.0905707 136.707694,18.5411911 C136.707694,18.0833747 136.890055,17.6255583 137.345958,17.3203474 C137.80186,17.0151365 138.31855,16.862531 139.078388,16.862531 C139.747045,16.862531 140.446096,16.9846154 141.114753,17.1677419 C141.783411,17.3508685 142.391281,17.6255583 142.877577,17.9918114 L143.029545,18.1138958 L143.029545,14.3903226 L142.938364,14.3598015 C142.482461,14.1766749 141.874591,13.9935484 141.145147,13.8409429 C140.415703,13.7188586 139.747045,13.6578164 139.199962,13.6578164 C137.315564,13.6578164 135.765495,14.1156328 134.549755,15.1228288 C133.334014,16.0689826 132.756537,17.3508685 132.756537,18.846402 C132.756537,19.6399504 132.878111,20.3419355 133.151653,20.9218362 C133.425195,21.501737 133.82031,22.0511166 134.367394,22.508933 C134.914477,22.9362283 135.704708,23.4245658 136.798875,23.8823821 C137.71068,24.2791563 138.409731,24.5843672 138.83524,24.828536 C139.260749,25.0727047 139.534291,25.3473945 139.747045,25.5610422 C139.899013,25.8052109 139.990193,26.1104218 139.990193,26.507196 C139.990193,27.6364764 139.139175,28.1858561 137.406745,28.1858561 C136.738088,28.1858561 136.039037,28.0637717 135.218412,27.7890819 C134.397787,27.5143921 133.637949,27.1176179 132.999685,26.6598015 L132.847718,26.5377171 L132.847718,30.4138958 L132.938898,30.4444169 C133.516375,30.7191067 134.215426,30.9022333 135.066444,31.1158809 C135.917463,31.2684864 136.6773,31.3905707 137.345958,31.3905707 C139.382323,31.3905707 141.053966,30.9327543 142.239313,29.9255583 C143.455054,28.9488834 144.093318,27.6975186 144.093318,26.0799007 C144.093318,24.9506203 143.789383,23.9434243 143.120725,23.180397 C142.239313,22.4478908 141.145147,21.6848635 139.564684,21.0744417 Z M154.518293,13.6883375 C151.752483,13.6883375 149.533756,14.5124069 147.983687,16.1300248 C146.433618,17.7476427 145.643387,19.9756824 145.643387,22.7836228 C145.643387,25.4084367 146.433618,27.5449132 147.953294,29.1014888 C149.472969,30.6275434 151.539728,31.4210918 154.123177,31.4210918 C156.8282,31.4210918 158.986139,30.5970223 160.536208,28.9488834 C162.116671,27.3007444 162.876509,25.1032258 162.876509,22.3868486 C162.876509,19.7009926 162.147064,17.5645161 160.657782,16.0079404 C159.229287,14.4513648 157.132135,13.6883375 154.518293,13.6883375 Z M157.648824,26.6903226 C156.91938,27.6364764 155.764427,28.0942928 154.335931,28.0942928 C152.877043,28.0942928 151.752483,27.6364764 150.931858,26.6292804 C150.111233,25.6831266 149.716118,24.3096774 149.716118,22.5699752 C149.716118,20.7692308 150.141627,19.3957816 150.931858,18.4191067 C151.752483,17.4424318 152.877043,16.9540943 154.305538,16.9540943 C155.673246,16.9540943 156.797806,17.4119107 157.588037,18.3580645 C158.378269,19.3042184 158.803778,20.6776675 158.803778,22.4784119 C158.803778,24.3096774 158.408662,25.7441687 157.648824,26.6903226 Z M184,17.3203474 L184,14.0545906 L180.01845,14.0545906 L180.01845,9.04913151 L179.896876,9.07965261 L176.12808,10.208933 L176.0369,10.2394541 L176.0369,14.0545906 L170.079771,14.0545906 L170.079771,11.9181141 C170.079771,10.9414392 170.322919,10.1784119 170.748428,9.69007444 C171.173938,9.20173697 171.812201,8.95756824 172.602433,8.95756824 C173.149516,8.95756824 173.726993,9.07965261 174.365256,9.35434243 L174.517224,9.44590571 L174.517224,5.99702233 L174.426043,5.96650124 C173.87896,5.78337469 173.149516,5.66129032 172.207317,5.66129032 C171.02197,5.66129032 169.988591,5.93598015 169.046392,6.39379653 C168.104193,6.91265509 167.405142,7.6146402 166.888452,8.56079404 C166.371763,9.4764268 166.098221,10.5141439 166.098221,11.7044665 L166.098221,14.0545906 L163.332411,14.0545906 L163.332411,17.2898263 L166.098221,17.2898263 L166.098221,30.9632754 L170.079771,30.9632754 L170.079771,17.3203474 L176.0369,17.3203474 L176.0369,26.0188586 C176.0369,29.5898263 177.708543,31.3905707 181.051829,31.3905707 C181.598912,31.3905707 182.176389,31.2990074 182.723472,31.2074442 C183.300949,31.0853598 183.726458,30.9327543 183.969606,30.81067 L184,30.7801489 L184,27.5143921 L183.848032,27.6364764 C183.604884,27.7890819 183.39213,27.9111663 183.027408,28.0027295 C182.723472,28.0942928 182.449931,28.1248139 182.237176,28.1248139 C181.446945,28.1248139 180.899862,27.9416873 180.504746,27.483871 C180.140024,27.0565757 179.957663,26.3545906 179.957663,25.3168734 L179.957663,17.3203474 L184,17.3203474 Z" id="Shape" fill-rule="nonzero"></path>
                            <polygon id="Path" points="0 0 18.4 0 18.4 18.2419355 0 18.2419355"></polygon>
                            <polygon id="Path" points="20.937931 0 39.337931 0 39.337931 18.2419355 20.937931 18.2419355"></polygon>
                            <polygon id="Path" points="0 20.7580645 18.4 20.7580645 18.4 39 0 39"></polygon>
                            <polygon id="Path" points="20.937931 20.7580645 39.337931 20.7580645 39.337931 39 20.937931 39"></polygon>
                        </g>
                    </g>
                </g>
            </g>
        </g>
    </g>
</svg>
